X: 15
T: My Love is But a Lassie Yet
O: Trad
R: reel, march
Z: John Chambers <jc:trillian.mit.edu>
M: C|
L: 1/8
K: D
   dc \
| "D"d2D2 F2A2 | d2D2 D2dc | d2D2 F2A2 | "Em"e2E2 "A7"E2dc \
| "D"d2D2 F2A2 | "G"B2g2 "A7"f2e2 | "D"dcBA "A7"Bcde | "D"f2d2 d2 |]
   fg \
| "D"a3f "A7"g3e | "D"f2d2 d2fg | a2f2 gfga | "Em"b2e2 "A7"e2fg \
| "D"a2af "A7"g2ge | "D"f2fd "A7"e2ec | "D"dcBA "A7"Bcde | "D"f2d2 d2 |]

%%sep 2 1 500

